X:2
T:2. Mon amy
T:(Ronde 2)
C:Tielman Susato
S:Tileman Susato: Danserye (1551)
R:Ronde
M:4/2
L:1/2
T: Altus
K:C -8va
A2dd|ccec|cgf/2d/2e|e>dc2::AA/2F/2GA|eed/2e/2f/2e/2|de>dd-|
d^cd2::AAcc|A>Bcc|A>Bcc|f>ed^c|dAf>e|d^cd2:|
